web/public/background-3.svg

<svg style="object-fit:cover" id="my-svg" version="1" baseProfile="full" width="100%" height="100%" viewBox="0 0 1792 843" xmlns="http://www.w3.org/2000/svg"><rect width="1792" height="843" fill="#ffffff"/><path transform="scale(1, 1)" d="M 0,843 V 0,590 C 236.16666666666663,664.5 472.33333333333326,739 771,739 C 1069.6666666666667,739 1430.8333333333335,664.5 1792,590 C 1792,590 1792,843 1792,843 Z" stroke="none" stroke-width="0" fill="#f5df4d90" class="transition-all duration-300 ease-in-out delay-150" style="transform-origin: center center;"/><path transform="scale(1, 1)" d="M 0,843 V 0,885 C 312.16666666666663,816 624.3333333333333,747 923,747 C 1221.6666666666667,747 1506.8333333333335,816 1792,885 C 1792,885 1792,843 1792,843 Z" stroke="none" stroke-width="0" fill="#f5df4dff" class="transition-all duration-300 ease-in-out delay-150" style="transform-origin: center center;"/></svg>

<svg style="object-fit:cover" version="1" baseProfile="full" viewBox="0 0 1792 843" xmlns="http://www.w3.org/2000/svg"><path fill="#fff" d="M0 0H1792V843H0z"/><path d="M0 843V0v590c236.167 74.5 472.333 149 771 149s659.833-74.5 1021-149v253z" fill="#f5df4d90" class="transition-all duration-300 ease-in-out delay-150" style="transform-origin:center center"/><path d="M0 843V0v885c312.167-69 624.333-138 923-138 298.667 0 583.833 69 869 138v-42z" fill="#f5df4dff" class="transition-all duration-300 ease-in-out delay-150" style="transform-origin:center center"/></svg>
